X: 792
M: 6/4
L: 1/4
K: Gm
|:\
d/e/ |\
f2e d2c | d2c B2A/G/ | ABc c2B | Ac2 c2c |
d>ed c>BA | B>AG d3 | c>Bc c>BA | Bd2 A2G |\
^FD2 BG2 | d3- d2d | c>Bc c>BA | Gd2 d2 |]

